src/assets/images/full-logo.svg

<svg fill="none" height="64" viewBox="0 0 331 64" width="331" xmlns="http://www.w3.org/2000/svg" xmlns:xlink="http://www.w3.org/1999/xlink"><filter id="a" color-interpolation-filters="sRGB" filterUnits="userSpaceOnUse" height="85" width="79" x="-7" y="1"><feFlood flood-opacity="0" result="BackgroundImageFix"/><feColorMatrix in="SourceAlpha" result="hardAlpha" type="matrix" values="0 0 0 0 0 0 0 0 0 0 0 0 0 0 0 0 0 0 127 0"/><feOffset dy="-3"/><feGaussianBlur stdDeviation="1.5"/><feComposite in2="hardAlpha" operator="out"/><feColorMatrix type="matrix" values="0 0 0 0 1 0 0 0 0 1 0 0 0 0 1 0 0 0 0.1 0"/><feBlend in2="BackgroundImageFix" mode="normal" result="effect1_dropShadow_720_60"/><feColorMatrix in="SourceAlpha" result="hardAlpha" type="matrix" values="0 0 0 0 0 0 0 0 0 0 0 0 0 0 0 0 0 0 127 0"/><feOffset dy="4"/><feGaussianBlur stdDeviation="2"/><feComposite in2="hardAlpha" operator="out"/><feColorMatrix type="matrix" values="0 0 0 0 0 0 0 0 0 0 0 0 0 0 0 0 0 0 0.25 0"/><feBlend in2="effect1_dropShadow_720_60" mode="normal" result="effect2_dropShadow_720_60"/><feBlend in="SourceGraphic" in2="effect2_dropShadow_720_60" mode="normal" result="shape"/></filter><linearGradient id="b"><stop offset="0" stop-color="#1d4ed8"/><stop offset="1" stop-color="#1e40af"/></linearGradient><linearGradient id="c" gradientUnits="userSpaceOnUse" x1="53.5" x2="6.43755" xlink:href="#b" y1="-2.06452" y2="63.9555"/><linearGradient id="d" gradientUnits="userSpaceOnUse" x1="53.5" x2="6.43755" y1="-2.06452" y2="63.9555"><stop offset="0" stop-color="#1dd8cd"/><stop offset="1" stop-color="#1e41b4"/></linearGradient><linearGradient id="e" gradientUnits="userSpaceOnUse" x1="56.3516" x2="4.14166" xlink:href="#b" y1="4.70967" y2="77.9506"/><mask id="f" height="64" maskUnits="userSpaceOnUse" width="64" x="0" y="0"><path clip-rule="evenodd" d="m39.6361 1.45881 22.8775 23.13399c1.0755 1.0876 1.6133 2.622 1.461 4.1689l-3.0164 30.6453c-.2567 2.6085-2.3826 4.593-4.9204 4.593h-51.09198c-2.7315 0-4.94582-2.2878-4.94582-5.11 0-.9261.24362-1.8349.704814-2.6291l31.230886-53.77921c1.4053-2.4199862 4.4433-3.204702 6.7856-1.752708.3315.2055.6385.450448.9148.729828z" fill="url(#c)" fill-rule="evenodd"/></mask><g mask="url(#f)"><path clip-rule="evenodd" d="m39.6361 1.45881 22.8775 23.13399c1.0755 1.0876 1.6133 2.622 1.461 4.1689l-3.0164 30.6453c-.2567 2.6085-2.3826 4.593-4.9204 4.593h-51.09198c-2.7315 0-4.94582-2.2878-4.94582-5.11 0-.9261.24362-1.8349.704814-2.6291l31.230886-53.77921c1.4053-2.4199863 4.4433-3.204702 6.7856-1.752708.3315.2055.6385.450448.9148.729828z" fill="url(#d)" fill-rule="evenodd"/><g filter="url(#a)"><path clip-rule="evenodd" d="m40.9713 8.61837 25.3797 25.66423c1.1932 1.2066 1.7897 2.9088 1.6208 4.6249l-3.3462 33.9971c-.2849 2.8939-2.6433 5.0954-5.4587 5.0954h-56.68014c-3.030251 0-5.48676-2.538-5.48676-5.6689 0-1.0274.27027-2.0356.7819-2.9166l34.6467-59.66137c1.5591-2.68468 4.9294-3.55522 7.5278-1.94442.3678.22798.7084.49972 1.0149.80966z" fill="url(#e)" fill-rule="evenodd"/></g></g><g clip-rule="evenodd" fill="#000" fill-rule="evenodd"><path d="m100.82 15c-4.408 0-8.062.986-10.962 2.958-3.074 2.088-4.582 4.93-4.582 8.584 0 3.596 1.566 6.38 4.756 8.294 1.276.696 4.408 1.798 9.512 3.422l1.955.6008c3.412 1.0618 5.494 1.7895 6.281 2.1832 2.61 1.334 3.944 3.132 3.944 5.452 0 1.856-.928 3.306-2.784 4.35s-4.35 1.624-7.482 1.624c-3.48 0-6.032-.638-7.714-1.914-1.856-1.392-3.016-3.77-3.48-7.018h-6.264c.348 5.22 2.204 9.048 5.626 11.484 2.842 1.972 6.786 3.016 11.832 3.016 5.22 0 9.28-1.044 12.18-3.132 2.9-2.146 4.35-5.046 4.35-8.758 0-3.828-1.798-6.786-5.336-8.932-1.624-.986-5.278-2.32-10.846-4.06l-1.158-.3506c-3.0812-.9478-5.0466-1.6755-5.9328-2.1462l-.1012-.0552c-2.088-1.102-3.074-2.552-3.074-4.408 0-2.001.799-3.4693 2.4481-4.405l.2199-.119c1.45-.812 3.538-1.218 6.264-1.218 3.132 0 5.452.58 7.076 1.798 1.624 1.16 2.668 3.132 3.248 5.8h6.264c-.406-4.524-2.03-7.83-4.93-9.976-2.726-2.088-6.496-3.074-11.31-3.074zm19.836.812v5.394h13.862v36.018h6.264v-36.018h13.804v-5.394zm42.34 5.394c3.596-4.176 8.584-6.206 14.906-6.206 6.264 0 11.252 2.03 14.906 6.148 3.48 3.886 5.22 9.048 5.22 15.428 0 6.322-1.74 11.426-5.22 15.37-3.654 4.06-8.642 6.09-14.906 6.09-6.322 0-11.31-2.088-14.906-6.148-3.48-3.944-5.162-9.048-5.162-15.312 0-6.322 1.682-11.426 5.162-15.37zm14.906-.638c4.408 0 7.83 1.392 10.208 4.292 2.32 2.842 3.538 6.728 3.538 11.716 0 4.93-1.218 8.816-3.538 11.6-2.378 2.842-5.8 4.292-10.208 4.292s-7.83-1.508-10.266-4.408c-2.32-2.842-3.48-6.67-3.48-11.484 0-4.872 1.16-8.7 3.48-11.542 2.436-3.016 5.858-4.466 10.266-4.466zm29.406.986c3.48-4.408 8.468-6.554 15.08-6.554 4.814 0 8.816 1.218 11.948 3.77 3.016 2.436 4.872 5.8 5.51 9.976h-6.148c-.696-2.784-2.03-4.872-4.002-6.206s-4.408-1.972-7.424-1.972c-4.466 0-7.83 1.508-10.092 4.582l-.218.2917c-1.999 2.7575-2.972 6.4863-2.972 11.1343 0 4.988 1.044 8.816 3.132 11.542 2.204 2.9 5.626 4.35 10.266 4.35 3.016 0 5.568-.754 7.54-2.262 2.088-1.624 3.538-4.06 4.35-7.308h6.148c-.928 4.814-3.074 8.584-6.496 11.31-3.19 2.552-7.018 3.828-11.484 3.828-6.786 0-11.89-2.204-15.312-6.496-3.016-3.712-4.466-8.7-4.466-14.964 0-6.148 1.508-11.136 4.64-15.022zm39.498-5.742v41.412h6.322v-29.58h.232l12.702 19.58h5.452l12.702-19.58h.232v29.58h6.322v-41.412h-7.482l-14.384 23.176h-.174l-14.442-23.176zm77.894 2.262c-2.726-2.088-6.496-3.074-11.31-3.074-4.408 0-8.062.986-10.962 2.958-3.074 2.088-4.582 4.93-4.582 8.584 0 3.596 1.566 6.38 4.756 8.294 1.044.5695 3.33 1.4107 6.923 2.5873l2.589.8347c4.304 1.3076 6.971 2.2058 8.047 2.6945l.189.0895c2.61 1.334 3.944 3.132 3.944 5.452 0 1.856-.928 3.306-2.784 4.35s-4.35 1.624-7.482 1.624c-3.48 0-6.032-.638-7.714-1.914-1.856-1.392-3.016-3.77-3.48-7.018h-6.264c.348 5.22 2.204 9.048 5.626 11.484 2.842 1.972 6.786 3.016 11.832 3.016 5.22 0 9.28-1.044 12.18-3.132 2.9-2.146 4.35-5.046 4.35-8.758 0-3.828-1.798-6.786-5.336-8.932-1.528-.928-4.855-2.1643-9.883-3.7571l-.963-.3029c-3.886-1.16-6.264-2.03-7.192-2.552l-.255-.1396c-1.913-1.0839-2.819-2.4897-2.819-4.2684 0-2.088.87-3.596 2.668-4.524l.248-.1316c1.436-.7243 3.441-1.0864 6.016-1.0864 3.132 0 5.452.58 7.076 1.798 1.624 1.16 2.668 3.132 3.248 5.8h6.264c-.406-4.524-2.03-7.83-4.93-9.976z"/><path d="m84 9.568v-8.568h3.828c.792 0 1.428.192 1.896.576.456.384.684.912.684 1.584 0 .48-.132.9-.384 1.248-.264.312-.612.54-1.044.684.564.096.996.336 1.308.696s.48.816.48 1.392c0 .84-.3 1.464-.888 1.872-.504.336-1.2.516-2.076.516zm3.6-7.74h-2.616v2.916h2.604c.6 0 1.056-.132 1.368-.372.312-.252.48-.624.48-1.116 0-.48-.156-.84-.468-1.08s-.768-.348-1.368-.348zm-2.616 3.732h2.736c.66 0 1.164.12 1.512.384.36.264.552.672.552 1.224s-.216.972-.636 1.236c-.36.216-.828.336-1.428.336h-2.736zm7.44-1.392c.528-.648 1.236-.972 2.136-.972.996 0 1.752.336 2.256 1.008.456.6.696 1.452.72 2.532h-4.896c.048.696.228 1.236.564 1.62s.804.576 1.392.576c.504 0 .924-.132 1.236-.384.264-.216.468-.54.624-.972h.96c-.144.6-.42 1.08-.84 1.464-.516.456-1.176.696-1.98.696-.888 0-1.608-.3-2.136-.876-.552-.6-.816-1.392-.816-2.4 0-.912.252-1.68.78-2.292zm2.16-.168c1.176 0 1.836.66 1.956 1.992h-3.876c.06-.612.252-1.092.588-1.452s.78-.54 1.332-.54zm4.788-2.244.948-.396v2.004h1.536v.804h-1.536v3.948c0 .228.036.396.132.492.084.096.24.156.456.156h.792v.804h-.936c-.504 0-.876-.132-1.092-.396-.204-.24-.3-.588-.3-1.056v-3.948h-1.248v-.804h1.248zm6.252 1.44c-.744 0-1.332.144-1.788.432-.504.312-.828.804-.96 1.452l.948.072c.096-.396.3-.696.624-.888.288-.192.66-.276 1.116-.276 1.08 0 1.62.516 1.62 1.56v.324l-1.488.024c-.936.012-1.656.192-2.16.528-.576.36-.852.888-.852 1.596 0 .504.192.924.576 1.248.372.312.864.468 1.488.468.576 0 1.092-.132 1.548-.384.384-.216.708-.492.948-.828v1.044h.9v-3.984c0-.72-.192-1.284-.552-1.692-.432-.468-1.08-.696-1.968-.696zm1.56 3.924v-.528l-1.428.024c-1.392.024-2.088.48-2.088 1.38 0 .288.108.516.348.708.24.18.552.276.936.276.588 0 1.104-.192 1.56-.576.444-.372.672-.804.672-1.284z"/></g></svg>

<svg width="331" height="64" viewBox="0 0 331 64" fill="none"
  xmlns="http://www.w3.org/2000/svg">
  <mask id="mask0_720_60" style="mask-type:alpha" maskUnits="userSpaceOnUse" x="0" y="0" width="64" height="64">
    <path fill-rule="evenodd" clip-rule="evenodd" d="M39.6361 1.45881L62.5136 24.5928C63.5891 25.6804 64.1269 27.2148 63.9746 28.7617L60.9582 59.407C60.7015 62.0155 58.5756 64 56.0378 64H4.94582C2.21432 64 0 61.7122 0 58.89C0 57.9639 0.24362 57.0551 0.704814 56.2609L31.9357 2.48169C33.341 0.0617038 36.379 -0.723012 38.7213 0.728982C39.0528 0.934482 39.3598 1.17943 39.6361 1.45881Z" fill="url(#paint0_linear_720_60)"/>
  </mask>
  <g mask="url(#mask0_720_60)">
    <path fill-rule="evenodd" clip-rule="evenodd" d="M39.6361 1.45881L62.5136 24.5928C63.5891 25.6804 64.1269 27.2148 63.9746 28.7617L60.9582 59.407C60.7015 62.0155 58.5756 64 56.0378 64H4.94582C2.21432 64 0 61.7122 0 58.89C0 57.9639 0.24362 57.0551 0.704814 56.2609L31.9357 2.48169C33.341 0.0617037 36.379 -0.723012 38.7213 0.728982C39.0528 0.934482 39.3598 1.17943 39.6361 1.45881Z" fill="url(#paint1_linear_720_60)"/>
    <g filter="url(#filter0_dd_720_60)">
      <path fill-rule="evenodd" clip-rule="evenodd" d="M40.9713 8.61837L66.351 34.2826C67.5442 35.4892 68.1407 37.1914 67.9718 38.9075L64.6256 72.9046C64.3407 75.7985 61.9823 78 59.1669 78H2.48676C-0.543491 78 -3 75.462 -3 72.3311C-3 71.3037 -2.72973 70.2955 -2.2181 69.4145L32.4286 9.75313C33.9877 7.06845 37.358 6.19791 39.9564 7.80871C40.3242 8.03669 40.6648 8.30843 40.9713 8.61837Z" fill="url(#paint2_linear_720_60)"/>
    </g>
  </g>
  <path fill-rule="evenodd" clip-rule="evenodd" d="M100.82 15C96.412 15 92.758 15.986 89.858 17.958C86.784 20.046 85.276 22.888 85.276 26.542C85.276 30.138 86.842 32.922 90.032 34.836C91.308 35.532 94.44 36.634 99.544 38.258L101.499 38.8588C104.911 39.9206 106.993 40.6483 107.78 41.042C110.39 42.376 111.724 44.174 111.724 46.494C111.724 48.35 110.796 49.8 108.94 50.844C107.084 51.888 104.59 52.468 101.458 52.468C97.978 52.468 95.426 51.83 93.744 50.554C91.888 49.162 90.728 46.784 90.264 43.536H84C84.348 48.756 86.204 52.584 89.626 55.02C92.468 56.992 96.412 58.036 101.458 58.036C106.678 58.036 110.738 56.992 113.638 54.904C116.538 52.758 117.988 49.858 117.988 46.146C117.988 42.318 116.19 39.36 112.652 37.214C111.028 36.228 107.374 34.894 101.806 33.154L100.648 32.8034C97.5668 31.8556 95.6014 31.1279 94.7152 30.6572L94.614 30.602C92.526 29.5 91.54 28.05 91.54 26.194C91.54 24.193 92.339 22.7247 93.9881 21.789L94.208 21.67C95.658 20.858 97.746 20.452 100.472 20.452C103.604 20.452 105.924 21.032 107.548 22.25C109.172 23.41 110.216 25.382 110.796 28.05H117.06C116.654 23.526 115.03 20.22 112.13 18.074C109.404 15.986 105.634 15 100.82 15ZM120.656 15.812V21.206H134.518V57.224H140.782V21.206H154.586V15.812H120.656ZM162.996 21.206C166.592 17.03 171.58 15 177.902 15C184.166 15 189.154 17.03 192.808 21.148C196.288 25.034 198.028 30.196 198.028 36.576C198.028 42.898 196.288 48.002 192.808 51.946C189.154 56.006 184.166 58.036 177.902 58.036C171.58 58.036 166.592 55.948 162.996 51.888C159.516 47.944 157.834 42.84 157.834 36.576C157.834 30.254 159.516 25.15 162.996 21.206ZM177.902 20.568C182.31 20.568 185.732 21.96 188.11 24.86C190.43 27.702 191.648 31.588 191.648 36.576C191.648 41.506 190.43 45.392 188.11 48.176C185.732 51.018 182.31 52.468 177.902 52.468C173.494 52.468 170.072 50.96 167.636 48.06C165.316 45.218 164.156 41.39 164.156 36.576C164.156 31.704 165.316 27.876 167.636 25.034C170.072 22.018 173.494 20.568 177.902 20.568ZM207.308 21.554C210.788 17.146 215.776 15 222.388 15C227.202 15 231.204 16.218 234.336 18.77C237.352 21.206 239.208 24.57 239.846 28.746H233.698C233.002 25.962 231.668 23.874 229.696 22.54C227.724 21.206 225.288 20.568 222.272 20.568C217.806 20.568 214.442 22.076 212.18 25.15L211.962 25.4417C209.963 28.1992 208.99 31.928 208.99 36.576C208.99 41.564 210.034 45.392 212.122 48.118C214.326 51.018 217.748 52.468 222.388 52.468C225.404 52.468 227.956 51.714 229.928 50.206C232.016 48.582 233.466 46.146 234.278 42.898H240.426C239.498 47.712 237.352 51.482 233.93 54.208C230.74 56.76 226.912 58.036 222.446 58.036C215.66 58.036 210.556 55.832 207.134 51.54C204.118 47.828 202.668 42.84 202.668 36.576C202.668 30.428 204.176 25.44 207.308 21.554ZM246.806 15.812V57.224H253.128V27.644H253.36L266.062 47.224H271.514L284.216 27.644H284.448V57.224H290.77V15.812H283.288L268.904 38.988H268.73L254.288 15.812H246.806ZM324.7 18.074C321.974 15.986 318.204 15 313.39 15C308.982 15 305.328 15.986 302.428 17.958C299.354 20.046 297.846 22.888 297.846 26.542C297.846 30.138 299.412 32.922 302.602 34.836C303.646 35.4055 305.932 36.2467 309.525 37.4233L312.114 38.258C316.418 39.5656 319.085 40.4638 320.161 40.9525L320.35 41.042C322.96 42.376 324.294 44.174 324.294 46.494C324.294 48.35 323.366 49.8 321.51 50.844C319.654 51.888 317.16 52.468 314.028 52.468C310.548 52.468 307.996 51.83 306.314 50.554C304.458 49.162 303.298 46.784 302.834 43.536H296.57C296.918 48.756 298.774 52.584 302.196 55.02C305.038 56.992 308.982 58.036 314.028 58.036C319.248 58.036 323.308 56.992 326.208 54.904C329.108 52.758 330.558 49.858 330.558 46.146C330.558 42.318 328.76 39.36 325.222 37.214C323.694 36.286 320.367 35.0497 315.339 33.4569L314.376 33.154C310.49 31.994 308.112 31.124 307.184 30.602L306.929 30.4624C305.016 29.3785 304.11 27.9727 304.11 26.194C304.11 24.106 304.98 22.598 306.778 21.67L307.026 21.5384C308.462 20.8141 310.467 20.452 313.042 20.452C316.174 20.452 318.494 21.032 320.118 22.25C321.742 23.41 322.786 25.382 323.366 28.05H329.63C329.224 23.526 327.6 20.22 324.7 18.074Z" fill="black"/>
  <path fill-rule="evenodd" clip-rule="evenodd" d="M84 9.568V1H87.828C88.62 1 89.256 1.192 89.724 1.576C90.18 1.96 90.408 2.488 90.408 3.16C90.408 3.64 90.276 4.06 90.024 4.408C89.76 4.72 89.412 4.948 88.98 5.092C89.544 5.188 89.976 5.428 90.288 5.788C90.6 6.148 90.768 6.604 90.768 7.18C90.768 8.02 90.468 8.644 89.88 9.052C89.376 9.388 88.68 9.568 87.804 9.568H84ZM87.6 1.828H84.984V4.744H87.588C88.188 4.744 88.644 4.612 88.956 4.372C89.268 4.12 89.436 3.748 89.436 3.256C89.436 2.776 89.28 2.416 88.968 2.176C88.656 1.936 88.2 1.828 87.6 1.828ZM84.984 5.56H87.72C88.38 5.56 88.884 5.68 89.232 5.944C89.592 6.208 89.784 6.616 89.784 7.168C89.784 7.72 89.568 8.14 89.148 8.404C88.788 8.62 88.32 8.74 87.72 8.74H84.984V5.56ZM92.424 4.168C92.952 3.52 93.66 3.196 94.56 3.196C95.556 3.196 96.312 3.532 96.816 4.204C97.272 4.804 97.512 5.656 97.536 6.736H92.64C92.688 7.432 92.868 7.972 93.204 8.356C93.54 8.74 94.008 8.932 94.596 8.932C95.1 8.932 95.52 8.8 95.832 8.548C96.096 8.332 96.3 8.008 96.456 7.576H97.416C97.272 8.176 96.996 8.656 96.576 9.04C96.06 9.496 95.4 9.736 94.596 9.736C93.708 9.736 92.988 9.436 92.46 8.86C91.908 8.26 91.644 7.468 91.644 6.46C91.644 5.548 91.896 4.78 92.424 4.168ZM94.584 4C95.76 4 96.42 4.66 96.54 5.992H92.664C92.724 5.38 92.916 4.9 93.252 4.54C93.588 4.18 94.032 4 94.584 4ZM99.372 1.756L100.32 1.36V3.364H101.856V4.168H100.32V8.116C100.32 8.344 100.356 8.512 100.452 8.608C100.536 8.704 100.692 8.764 100.908 8.764H101.7V9.568H100.764C100.26 9.568 99.888 9.436 99.672 9.172C99.468 8.932 99.372 8.584 99.372 8.116V4.168H98.124V3.364H99.372V1.756ZM105.624 3.196C104.88 3.196 104.292 3.34 103.836 3.628C103.332 3.94 103.008 4.432 102.876 5.08L103.824 5.152C103.92 4.756 104.124 4.456 104.448 4.264C104.736 4.072 105.108 3.988 105.564 3.988C106.644 3.988 107.184 4.504 107.184 5.548V5.872L105.696 5.896C104.76 5.908 104.04 6.088 103.536 6.424C102.96 6.784 102.684 7.312 102.684 8.02C102.684 8.524 102.876 8.944 103.26 9.268C103.632 9.58 104.124 9.736 104.748 9.736C105.324 9.736 105.84 9.604 106.296 9.352C106.68 9.136 107.004 8.86 107.244 8.524V9.568H108.144V5.584C108.144 4.864 107.952 4.3 107.592 3.892C107.16 3.424 106.512 3.196 105.624 3.196ZM107.184 7.12V6.592L105.756 6.616C104.364 6.64 103.668 7.096 103.668 7.996C103.668 8.284 103.776 8.512 104.016 8.704C104.256 8.884 104.568 8.98 104.952 8.98C105.54 8.98 106.056 8.788 106.512 8.404C106.956 8.032 107.184 7.6 107.184 7.12Z" fill="black"/>
  <defs>
    <filter id="filter0_dd_720_60" x="-7" y="1" width="79" height="85" filterUnits="userSpaceOnUse" color-interpolation-filters="sRGB">
      <feFlood flood-opacity="0" result="BackgroundImageFix"/>
      <feColorMatrix in="SourceAlpha" type="matrix" values="0 0 0 0 0 0 0 0 0 0 0 0 0 0 0 0 0 0 127 0" result="hardAlpha"/>
      <feOffset dy="-3"/>
      <feGaussianBlur stdDeviation="1.5"/>
      <feComposite in2="hardAlpha" operator="out"/>
      <feColorMatrix type="matrix" values="0 0 0 0 1 0 0 0 0 1 0 0 0 0 1 0 0 0 0.1 0"/>
      <feBlend mode="normal" in2="BackgroundImageFix" result="effect1_dropShadow_720_60"/>
      <feColorMatrix in="SourceAlpha" type="matrix" values="0 0 0 0 0 0 0 0 0 0 0 0 0 0 0 0 0 0 127 0" result="hardAlpha"/>
      <feOffset dy="4"/>
      <feGaussianBlur stdDeviation="2"/>
      <feComposite in2="hardAlpha" operator="out"/>
      <feColorMatrix type="matrix" values="0 0 0 0 0 0 0 0 0 0 0 0 0 0 0 0 0 0 0.25 0"/>
      <feBlend mode="normal" in2="effect1_dropShadow_720_60" result="effect2_dropShadow_720_60"/>
      <feBlend mode="normal" in="SourceGraphic" in2="effect2_dropShadow_720_60" result="shape"/>
    </filter>
    <linearGradient id="paint0_linear_720_60" x1="53.5" y1="-2.06452" x2="6.43755" y2="63.9555" gradientUnits="userSpaceOnUse">
      <stop stop-color="#1D4ED8"/>
      <stop offset="1" stop-color="#1E40AF"/>
    </linearGradient>
    <linearGradient id="paint1_linear_720_60" x1="53.5" y1="-2.06452" x2="6.43755" y2="63.9555" gradientUnits="userSpaceOnUse">
      <stop stop-color="#1DD8CD"/>
      <stop offset="1" stop-color="#1E41B4"/>
    </linearGradient>
    <linearGradient id="paint2_linear_720_60" x1="56.3516" y1="4.70967" x2="4.14166" y2="77.9506" gradientUnits="userSpaceOnUse">
      <stop stop-color="#1D4ED8"/>
      <stop offset="1" stop-color="#1E40AF"/>
    </linearGradient>
  </defs>
</svg>
